Obsidian-SemiLight/actions/22s/format-node-corner.svg

<svg viewBox="0 0 22 22" xmlns="http://www.w3.org/2000/svg"><path d="m16 3v1h-10.0878906c.0574926.1604624.087215.3295502.0878906.5-.0006756.1704498-.030398.3395376-.0878906.5h10.0878906v1h3v-3zm1 1h1v1h-1zm-13 1.9121094v10.0878906h-1v3h3v-3h-1v-10.0878906c-.1604624.0574926-.3295502.087215-.5.0878906-.1704498-.0006756-.3395376-.030398-.5-.0878906zm0 11.0878906h1v1h-1z" fill="#4d4d4d"/><path d="m4.5 3a1.5 1.5 0 0 0 -1.5 1.5 1.5 1.5 0 0 0 1.5 1.5 1.5 1.5 0 0 0 1.5-1.5 1.5 1.5 0 0 0 -1.5-1.5zm0 1a.5.5 0 0 1 .5.5.5.5 0 0 1 -.5.5.5.5 0 0 1 -.5-.5.5.5 0 0 1 .5-.5z" fill="#3daee9"/></svg>

<svg xmlns="http://www.w3.org/2000/svg" viewBox="0 0 22 22">
  <defs id="defs3051">
    <style type="text/css" id="current-color-scheme">
      .ColorScheme-Text {
        color:#4d4d4d;
      }
      .ColorScheme-Highlight {
        color:#3daee9;
      }
      </style>
  </defs>
 <path 
     style="fill:currentColor;fill-opacity:1;stroke:none" 
     d="M 16 3 L 16 4 L 5.9121094 4 C 5.969602 4.1604624 5.9993244 4.3295502 6 4.5 C 5.9993244 4.6704498 5.969602 4.8395376 5.9121094 5 L 16 5 L 16 6 L 19 6 L 19 3 L 16 3 z M 17 4 L 18 4 L 18 5 L 17 5 L 17 4 z M 4 5.9121094 L 4 16 L 3 16 L 3 19 L 6 19 L 6 16 L 5 16 L 5 5.9121094 C 4.8395376 5.969602 4.6704498 5.9993244 4.5 6 C 4.3295502 5.9993244 4.1604624 5.969602 4 5.9121094 z M 4 17 L 5 17 L 5 18 L 4 18 L 4 17 z "
     class="ColorScheme-Text"
     />
 <path 
     style="fill:currentColor;fill-opacity:1;stroke:none" 
     d="M 4.5 3 A 1.5 1.5 0 0 0 3 4.5 A 1.5 1.5 0 0 0 4.5 6 A 1.5 1.5 0 0 0 6 4.5 A 1.5 1.5 0 0 0 4.5 3 z M 4.5 4 A 0.5 0.5 0 0 1 5 4.5 A 0.5 0.5 0 0 1 4.5 5 A 0.5 0.5 0 0 1 4 4.5 A 0.5 0.5 0 0 1 4.5 4 z "
     class="ColorScheme-Highlight"
     />
</svg>
